svg/part/hair_line.svg

<?xml version="1.0" encoding="UTF-8"?>
<svg width="24px" height="24px" viewBox="0 0 24 24" version="1.1" xmlns="http://www.w3.org/2000/svg" xmlns:xlink="http://www.w3.org/1999/xlink">
    <title>hair_line</title>
    <g id="页面-1" stroke="none" stroke-width="1" fill="none" fill-rule="evenodd">
        <g id="Part" transform="translate(-336.000000, 0.000000)">
            <g id="hair_line" transform="translate(336.000000, 0.000000)">
                 <path d="M24,0 L24,24 L0,24 L0,0 L24,0 Z M12.5934901,23.257841 L12.5819402,23.2595131 L12.5108777,23.2950439 L12.4918791,23.2987469 L12.4918791,23.2987469 L12.4767152,23.2950439 L12.4056548,23.2595131 C12.3958229,23.2563662 12.3870493,23.2590235 12.3821421,23.2649074 L12.3780323,23.275831 L12.360941,23.7031097 L12.3658947,23.7234994 L12.3769048,23.7357139 L12.4804777,23.8096931 L12.4953491,23.8136134 L12.4953491,23.8136134 L12.5071152,23.8096931 L12.6106902,23.7357139 L12.6232938,23.7196733 L12.6232938,23.7196733 L12.6266527,23.7031097 L12.609561,23.275831 C12.6075724,23.2657013 12.6010112,23.2592993 12.5934901,23.257841 L12.5934901,23.257841 Z M12.8583906,23.1452862 L12.8445485,23.1473072 L12.6598443,23.2396597 L12.6498822,23.2499052 L12.6498822,23.2499052 L12.6471943,23.2611114 L12.6650943,23.6906389 L12.6699349,23.7034178 L12.6699349,23.7034178 L12.678386,23.7104931 L12.8793402,23.8032389 C12.8914285,23.8068999 12.9022333,23.8029875 12.9078286,23.7952264 L12.9118235,23.7811639 L12.8776777,23.1665331 C12.8752882,23.1545897 12.8674102,23.1470016 12.8583906,23.1452862 L12.8583906,23.1452862 Z M12.1430473,23.1473072 C12.1332178,23.1423925 12.1221763,23.1452606 12.1156365,23.1525954 L12.1099173,23.1665331 L12.0757714,23.7811639 C12.0751323,23.7926639 12.0828099,23.8018602 12.0926481,23.8045676 L12.108256,23.8032389 L12.3092106,23.7104931 L12.3186497,23.7024347 L12.3186497,23.7024347 L12.3225043,23.6906389 L12.340401,23.2611114 L12.337245,23.2485176 L12.337245,23.2485176 L12.3277531,23.2396597 L12.1430473,23.1473072 Z" id="MingCute" fill-rule="nonzero"></path>
                <path d="M12,3 C16.9706,3 21,7.02944 21,12 L21,18 C21,19.6569 19.6569,21 18,21 L16.618,21 C15.8985,21 15.2376,20.6138 14.8828,19.9945 C13.9472,20.6335 12.916,21 12,21 C11.084,21 10.0528,20.6335 9.11722,19.9944 C8.76242,20.6138 8.10152,21 7.38197,21 L6,21 C4.34315,21 3,19.6569 3,18 L3,12 C3,7.02944 7.02944,3 12,3 Z M12,5 C8.13401,5 5,8.13401 5,12 L5,18 C5,18.5523 5.44772,19 6,19 L7.38197,19 L7.59096,18.582 C6.66115,17.4286 6,15.8799 6,14 C6,13.2091 6.13344,12.4256 6.37336,11.6879 C6.51091,11.265 6.9112,10.9837 7.35569,10.9977 C8.86025,11.0449 10.3154,10.3183 11.1824,9.08727 C11.3697,8.82129 11.6747,8.66304 12,8.66304 C12.3253,8.66304 12.6303,8.8213 12.8176,9.08728 C13.6845,10.3184 15.1397,11.0449 16.6443,10.9977 C17.0888,10.9838 17.4891,11.2651 17.6267,11.688 C17.8666,12.4256 18,13.2091 18,14 C18,15.8799 17.3389,17.4286 16.409,18.582 L16.618,19 L18,19 C18.5523,19 19,18.5523 19,18 L19,12 C19,8.13401 15.866,5 12,5 Z M12,11.1903 C10.9684,12.18 9.60981,12.8339 8.10191,12.9724 C8.03491,13.3131 8,13.6579 8,14 C8,15.6183 8.65705,16.8719 9.50644,17.7272 C10.3868,18.6137 11.3951,19 12,19 C12.6049,19 13.6132,18.6137 14.4936,17.7272 C15.3429,16.8719 16,15.6183 16,14 C16,13.6579 15.9651,13.3131 15.8981,12.9725 C14.3902,12.8339 13.0315,12.1801 12,11.1903 Z" id="形状" fill="#09244B"></path>
            </g>
        </g>
    </g>
</svg>

<svg xmlns="http://www.w3.org/2000/svg" width="24" height="24"><g fill="none" fill-rule="evenodd"><path d="M24 0v24H0V0h24ZM12.593 23.258l-.011.002-.071.035-.02.004-.014-.004-.071-.035c-.01-.004-.019-.001-.024.005l-.004.01-.017.428.005.02.01.013.104.074.015.004.012-.004.104-.074.012-.016.004-.017-.017-.427c-.002-.01-.009-.017-.017-.018Zm.265-.113-.013.002-.185.093-.01.01-.003.011.018.43.005.012.008.007.201.093c.012.004.023 0 .029-.008l.004-.014-.034-.614c-.003-.012-.01-.02-.02-.022Zm-.715.002a.023.023 0 0 0-.027.006l-.006.014-.034.614c0 .012.007.02.017.024l.015-.002.201-.093.01-.008.004-.011.017-.43-.003-.012-.01-.01-.184-.092Z"/><path fill="#09244B" d="M12 3a9 9 0 0 1 9 9v6a3 3 0 0 1-3 3h-1.382a2 2 0 0 1-1.735-1.006C13.947 20.635 12.916 21 12 21c-.916 0-1.947-.366-2.883-1.006A2 2 0 0 1 7.382 21H6a3 3 0 0 1-3-3v-6a9 9 0 0 1 9-9Zm0 2a7 7 0 0 0-7 7v6a1 1 0 0 0 1 1h1.382l.209-.418C6.661 17.429 6 15.88 6 14c0-.79.133-1.574.373-2.312a1 1 0 0 1 .983-.69 4.537 4.537 0 0 0 3.826-1.91 1 1 0 0 1 1.636 0 4.536 4.536 0 0 0 3.826 1.91 1 1 0 0 1 .983.69c.24.738.373 1.521.373 2.312 0 1.88-.661 3.429-1.591 4.582l.209.418H18a1 1 0 0 0 1-1v-6a7 7 0 0 0-7-7Zm0 6.19a6.48 6.48 0 0 1-3.898 1.782C8.035 13.313 8 13.658 8 14c0 1.618.657 2.872 1.506 3.727.88.887 1.89 1.273 2.494 1.273.605 0 1.613-.386 2.494-1.273C15.343 16.872 16 15.618 16 14a5.33 5.33 0 0 0-.102-1.027A6.48 6.48 0 0 1 12 11.19Z"/></g></svg>
